X:496
T:
R:vals
S:Efter en gammal notbok i Gotlands fornsal.
O:Gotland
M:3/4
L:1/8
K:G
DC|B,2 B,2 B,2|CDCB, C2|A,2 A,2 A,2|B,B,CA, B,2|
D2 D2 GE|D2 EDCB,|A,2 CA,B,G,|A,4::
d2|f2 d2 d2|g2 b2 d2|f2 d2 d2|g2 b2 d2|
d2 d2 ge|d2 edcB|ABcedF|G4:|

